src/icons/bug.svg

<?xml version="1.0" encoding="UTF-8"?>
<svg width="512px" height="512px" viewBox="0 0 512 512" version="1.1" xmlns="http://www.w3.org/2000/svg" xmlns:xlink="http://www.w3.org/1999/xlink">
    <!-- Generator: Sketch 62 (91390) - https://sketch.com -->
    <title>bug</title>
    <desc>Created with Sketch.</desc>
    <g id="bug" stroke="none" stroke-width="1" fill="none" fill-rule="evenodd">
        <path d="M354.8,92.7 C330.4,60.4 295.2,40 256,40 C216.8,40 181.5,60.4 157.2,92.7 C162.5,105.8 170.4,117.7 180.7,127.9 C200.9,148.1 227.6,159.2 256.1,159.2 C284.6,159.2 311.4,148.1 331.5,127.9 C341.6,117.8 349.6,105.8 354.8,92.7 Z" id="Path" fill="#000000" fill-rule="nonzero"></path>
        <path d="M148.3,138.531307 C146.9,140.831307 145.5,143.331307 144.1,145.731307 C141.6,144.231307 139.7,142.531307 137.7,140.931307 C136.8,140.131307 135.2,137.631307 134,134.831307 C138.6,125.331307 134.9,113.931307 125.7,108.831307 C116,103.431307 103.9,106.831307 98.5,116.531307 C93.1,126.231307 96.5,138.331307 106.2,143.731307 C107.3,144.331307 108.3,144.831307 109.4,145.131307 C111.7,150.431307 115.5,157.031307 120.7,161.431307 C124.2,164.331307 128.1,167.431307 133.4,170.331307 C127.4,187.231307 123.7,205.531307 122.9,224.831307 C113.7,224.931307 107.4,226.631307 101.7,228.231307 C98.2,229.331307 94.8,231.031307 91.9,233.131307 C91.1,233.031307 90.3,233.031307 89.4,233.031307 C78.3,233.031307 69.4,242.031307 69.4,253.031307 C69.4,264.131307 78.4,273.031307 89.4,273.031307 C100.1,273.031307 109,264.531307 109.4,253.731307 C113.6,252.431307 117.7,251.531307 123.6,251.431307 C126.3,278.931307 134.7,304.331307 147.4,325.731307 C135.6,334.931307 128.4,344.831307 125.2,355.931307 C125.2,355.931307 124.6,356.331307 123.7,357.131307 C122.9,357.831307 122.1,358.531307 121.4,359.331307 C114,367.531307 114.6,380.231307 122.9,387.531307 C131.1,394.931307 143.8,394.331307 151.1,386.031307 C157.9,378.531307 157.9,367.331307 151.6,359.931307 C154.2,355.231307 156.9,352.431307 163,347.431307 C185.5,373.831307 215.9,390.831307 249.5,392.831307 L249.5,205.331307 C205,202.831307 166.9,176.331307 148.3,138.531307 Z M422.7,232.931307 C421.9,232.931307 421.1,232.931307 420.2,233.031307 C417.2,230.931307 413.8,229.131307 410.4,228.131307 C404.7,226.531307 398.4,224.831307 389.2,224.731307 C388.4,205.431307 384.8,187.031307 378.7,170.231307 C384.1,167.331307 387.9,164.231307 391.4,161.331307 C396.5,157.031307 400.4,150.231307 402.7,145.031307 C403.9,144.631307 404.9,144.231307 405.9,143.631307 C415.6,138.231307 419,126.031307 413.6,116.431307 C408.2,106.731307 396,103.331307 386.4,108.731307 C377.2,113.831307 373.7,125.331307 378.1,134.731307 C376.8,137.531307 375.3,140.031307 374.4,140.831307 C372.4,142.631307 370.4,144.131307 368,145.631307 C366.7,143.131307 365.3,140.831307 363.8,138.431307 C345.1,176.231307 307.2,202.731307 262.9,205.231307 L262.9,392.831307 C296.5,390.831307 326.7,373.831307 349.4,347.431307 C355.6,352.331307 358.3,355.231307 360.8,359.931307 C354.5,367.431307 354.5,378.631307 361.3,386.031307 C368.7,394.231307 381.4,394.931307 389.5,387.531307 C397.6,380.131307 398.4,367.431307 391,359.331307 C390.3,358.531307 389.5,357.831307 388.7,357.131307 C387.8,356.331307 387.2,355.931307 387.2,355.931307 C384,344.831307 376.8,334.831307 365,325.731307 C377.7,304.231307 386.2,278.931307 388.8,251.431307 C394.8,251.531307 398.8,252.531307 403,253.731307 C403.5,264.331307 412.2,273.031307 423,273.031307 C434.1,273.031307 443,264.031307 443,253.031307 C442.9,242.031307 433.7,232.931307 422.7,232.931307 Z" id="Shape" fill="#000000" fill-rule="nonzero"></path>
    </g>
</svg>

<svg xmlns="http://www.w3.org/2000/svg" width="512" height="512" viewBox="0 0 512 512">
    <path d="M354.8 92.7C330.4 60.4 295.2 40 256 40c-39.2 0-74.5 20.4-98.8 52.7 5.3 13.1 13.2 25 23.5 35.2 20.2 20.2 46.9 31.3 75.4 31.3 28.5 0 55.3-11.1 75.4-31.3 10.1-10.1 18.1-22.1 23.3-35.2zm-206.5 45.831c-1.4 2.3-2.8 4.8-4.2 7.2-2.5-1.5-4.4-3.2-6.4-4.8-.9-.8-2.5-3.3-3.7-6.1 4.6-9.5.9-20.9-8.3-26-9.7-5.4-21.8-2-27.2 7.7-5.4 9.7-2 21.8 7.7 27.2 1.1.6 2.1 1.1 3.2 1.4 2.3 5.3 6.1 11.9 11.3 16.3 3.5 2.9 7.4 6 12.7 8.9-6 16.9-9.7 35.2-10.5 54.5-9.2.1-15.5 1.8-21.2 3.4-3.5 1.1-6.9 2.8-9.8 4.9-.8-.1-1.6-.1-2.5-.1-11.1 0-20 9-20 20 0 11.1 9 20 20 20 10.7 0 19.6-8.5 20-19.3 4.2-1.3 8.3-2.2 14.2-2.3 2.7 27.5 11.1 52.9 23.8 74.3-11.8 9.2-19 19.1-22.2 30.2 0 0-.6.4-1.5 1.2-.8.7-1.6 1.4-2.3 2.2-7.4 8.2-6.8 20.9 1.5 28.2 8.2 7.4 20.9 6.8 28.2-1.5 6.8-7.5 6.8-18.7.5-26.1 2.6-4.7 5.3-7.5 11.4-12.5 22.5 26.4 52.9 43.4 86.5 45.4v-187.5c-44.5-2.5-82.6-29-101.2-66.8zm274.4 94.4c-.8 0-1.6 0-2.5.1-3-2.1-6.4-3.9-9.8-4.9-5.7-1.6-12-3.3-21.2-3.4-.8-19.3-4.4-37.7-10.5-54.5 5.4-2.9 9.2-6 12.7-8.9 5.1-4.3 9-11.1 11.3-16.3 1.2-.4 2.2-.8 3.2-1.4 9.7-5.4 13.1-17.6 7.7-27.2-5.4-9.7-17.6-13.1-27.2-7.7-9.2 5.1-12.7 16.6-8.3 26-1.3 2.8-2.8 5.3-3.7 6.1-2 1.8-4 3.3-6.4 4.8-1.3-2.5-2.7-4.8-4.2-7.2-18.7 37.8-56.6 64.3-100.9 66.8v187.6c33.6-2 63.8-19 86.5-45.4 6.2 4.9 8.9 7.8 11.4 12.5-6.3 7.5-6.3 18.7.5 26.1 7.4 8.2 20.1 8.9 28.2 1.5 8.1-7.4 8.9-20.1 1.5-28.2-.7-.8-1.5-1.5-2.3-2.2-.9-.8-1.5-1.2-1.5-1.2-3.2-11.1-10.4-21.1-22.2-30.2 12.7-21.5 21.2-46.8 23.8-74.3 6 .1 10 1.1 14.2 2.3.5 10.6 9.2 19.3 20 19.3 11.1 0 20-9 20-20-.1-11-9.3-20.1-20.3-20.1z"/>
</svg>
